client/public/img/game/shared/loot/firework_rocket.svg

<?xml version="1.0" encoding="UTF-8" standalone="no"?>
<svg
   width="73"
   height="50"
   viewBox="0 0 73 50"
   fill="none"
   version="1.1"
   id="svg11"
   xmlns="http://www.w3.org/2000/svg"
   xmlns:svg="http://www.w3.org/2000/svg">
  <defs
     id="defs11" />
  <path
     d="M66.9654 1.34521H5.96343C3.66932 1.34521 1.80957 3.20496 1.80957 5.49906V44.3472C1.80957 46.6413 3.66932 48.501 5.96343 48.501H66.9654C69.2595 48.501 71.1192 46.6413 71.1192 44.3472V5.49906C71.1192 3.20496 69.2595 1.34521 66.9654 1.34521Z"
     fill="#D16161"
     stroke="#4F1717"
     stroke-width="2.69032"
     stroke-miterlimit="10"
     stroke-linecap="round"
     stroke-linejoin="round"
     id="path1" />
  <path
     d="M64.1569 11.077C65.6863 11.077 66.9261 9.83721 66.9261 8.30781C66.9261 6.7784 65.6863 5.53857 64.1569 5.53857C62.6275 5.53857 61.3877 6.7784 61.3877 8.30781C61.3877 9.83721 62.6275 11.077 64.1569 11.077Z"
     fill="#D16161"
     stroke="#4F1717"
     stroke-width="1.38461"
     stroke-linecap="round"
     stroke-linejoin="round"
     id="path2" />
  <path
     d="M64.1569 44.3077C65.6863 44.3077 66.9261 43.0679 66.9261 41.5385C66.9261 40.0091 65.6863 38.7693 64.1569 38.7693C62.6275 38.7693 61.3877 40.0091 61.3877 41.5385C61.3877 43.0679 62.6275 44.3077 64.1569 44.3077Z"
     fill="#D16161"
     stroke="#4F1717"
     stroke-width="1.38461"
     stroke-linecap="round"
     stroke-linejoin="round"
     id="path3" />
  <path
     d="M8.77214 44.3077C10.3015 44.3077 11.5414 43.0679 11.5414 41.5385C11.5414 40.0091 10.3015 38.7693 8.77214 38.7693C7.24274 38.7693 6.00293 40.0091 6.00293 41.5385C6.00293 43.0679 7.24274 44.3077 8.77214 44.3077Z"
     fill="#D16161"
     stroke="#4F1717"
     stroke-width="1.38461"
     stroke-linecap="round"
     stroke-linejoin="round"
     id="path4" />
  <path
     d="M8.77214 11.077C10.3015 11.077 11.5414 9.83721 11.5414 8.30781C11.5414 6.7784 10.3015 5.53857 8.77214 5.53857C7.24274 5.53857 6.00293 6.7784 6.00293 8.30781C6.00293 9.83721 7.24274 11.077 8.77214 11.077Z"
     fill="#D16161"
     stroke="#4F1717"
     stroke-width="1.38461"
     stroke-linecap="round"
     stroke-linejoin="round"
     id="path5" />
  <path
     d="M28.2451 33.1433L19.6162 41.7722"
     stroke="#4F1717"
     stroke-width="2.69102"
     stroke-linecap="round"
     stroke-linejoin="round"
     id="path6" />
  <path
     d="M47.5648 20.3055L41.082 13.8228L25.2421 29.6627L31.7248 36.1454L47.5648 20.3055Z"
     stroke="#4F1717"
     stroke-width="2.69102"
     stroke-linecap="round"
     stroke-linejoin="round"
     id="path7" />
  <path
     d="M27.6761 27.9594L36.7492 30.3906"
     stroke="#4F1717"
     stroke-width="2.69102"
     stroke-linecap="round"
     stroke-linejoin="round"
     id="path8" />
  <path
     d="M31.8675 23.7687L40.9405 26.1998"
     stroke="#4F1717"
     stroke-width="2.69102"
     stroke-linecap="round"
     stroke-linejoin="round"
     id="path9" />
  <path
     d="M36.0579 19.5778L45.131 22.009"
     stroke="#4F1717"
     stroke-width="2.69102"
     stroke-linecap="round"
     stroke-linejoin="round"
     id="path10" />
  <path
     fill-rule="evenodd"
     clip-rule="evenodd"
     d="M53.314 8.07398L48.9413 21.5593L39.8288 12.4468L53.314 8.07398Z"
     stroke="#4F1717"
     stroke-width="2.69102"
     stroke-linecap="round"
     stroke-linejoin="round"
     id="path11" />
</svg>

<svg xmlns="http://www.w3.org/2000/svg" width="73" height="50" fill="none"><path fill="#D16161" stroke="#4F1717" stroke-linecap="round" stroke-linejoin="round" stroke-miterlimit="10" stroke-width="2.69" d="M66.965 1.345H5.963A4.154 4.154 0 0 0 1.81 5.5v38.848a4.154 4.154 0 0 0 4.153 4.154h61.002a4.154 4.154 0 0 0 4.154-4.154V5.5a4.154 4.154 0 0 0-4.154-4.154"/><path fill="#D16161" stroke="#4F1717" stroke-linecap="round" stroke-linejoin="round" stroke-width="1.385" d="M64.157 11.077a2.77 2.77 0 1 0 0-5.538 2.77 2.77 0 0 0 0 5.538M64.157 44.308a2.77 2.77 0 1 0 0-5.539 2.77 2.77 0 0 0 0 5.539M8.772 44.308a2.77 2.77 0 1 0 0-5.539 2.77 2.77 0 0 0 0 5.539M8.772 11.077a2.77 2.77 0 1 0 0-5.539 2.77 2.77 0 0 0 0 5.539"/><path stroke="#4F1717" stroke-linecap="round" stroke-linejoin="round" stroke-width="2.691" d="m28.245 33.143-8.629 8.63M47.565 20.306l-6.483-6.483-15.84 15.84 6.483 6.482zM27.676 27.96l9.073 2.43M31.868 23.769l9.073 2.43M36.058 19.578l9.073 2.431"/><path stroke="#4F1717" stroke-linecap="round" stroke-linejoin="round" stroke-width="2.691" d="m53.314 8.074-4.373 13.485-9.112-9.112z" clip-rule="evenodd"/></svg>
